X:1
T:Symphony No. 1 in C Major
T:Symphony No. 1 in C Major
T:4th Movement
T:Ludwig van Beethoven
T:Arranged for piano by Franz Liszt
C:Ludwig van Beethoven
Z:Arranged for piano by Franz Liszt
%%score { ( 1 3 ) | ( 2 4 ) }
L:1/8
Q:1/4=31
M:2/4
K:C
V:1 treble nm="Piano" snm="Pno."
V:3 treble 
V:2 bass 
V:4 bass 
V:1
!ff!"^Adagio" !fermata![G,G]3!p! .G/>.A/ | B z z3/4 .G/<.A/.B/4 | c z z/!pp! G/4!<(!A/4.B/.c/ | %3
 d z (3z/ G/A/ (3.B/.c/.d/!<)! |!p! e z z/ G/4A/4B/4c/4d/4e/4 | %5
 !fermata!f z z/[Q:1/4=166]"^Allegro molto vivace"!p! .G/.A/.B/ | .c/.d/.e/.f/ .g.g |: e2 .c.c | %8
 .d.d e/d/c/d/ | e2 c/.G/.A/.B/ | c/d/e/f/ .g.g | .e.c d/c/B/c/ | .A.d f/e/^c/d/ | .G2 z G | %14
 .[eg].[eg].[eg].[eg] | ([eg]2 [df]).[df] | .[df].[df].[df].[df] | ([df]2 [ce]).[ce] | %18
 .[ce].[Ece].[Ece].[Ece] | .[Fcd] z .[Acf] z | .[EGc] z .[DFB] z | .[Ec] z z2 | %22
 z"_cresc." .[Aa].[Bb].[^c^c'] | .[dd'].[ee'].[ff'] z | z .[Gg].[Aa].[Bb] | %25
 .[cc'].[dd'].[ee']!ff! .[ec'e'] | .[ec'e'].[Ece].[Ece].[Ece] | .[Dcd] z .[Aca] z | %28
 .[EGc] z .[DGB] z |!f! [CEGc]4 | [DGBd]4 | [Ece]!f! [cc'][cc'][cc'] | %32
 ([cc']/b/).a/.g/ ([Gg]/f/).e/.d/ |!f! g3 e | [Ff][Dd][B,B]G | [CEc] .[cc'].[cc'].[cc'] | %36
 ([cc']/b/).a/.g/ ([Bg]/f/).e/.d/ | [ce]2 [cec']2-!f! | [cec']c'/b/ a/g/^f/e/ | .[cd]2 [Bdb]2-!f! | %40
 [Bdb]b/a/ ^g/=f/e/d/ | .c a/=g/ ^f/e/d/c/ | .B g/^f/ e/d/c/B/ | .A e/!f!d/ c/B/A/^G/ | %44
 .A e/d/ ^c/B/A/=G/ |!mf! ^F/d/[FA]/d/ [FA]/d/[FA]/d/ | [^FA]/d/[FA]/d/ [FA]/d/[FA]/d/ | %47
 [GB]/d/[GB]/d/ [GB]/d/[GB]/d/ | [GB]/d/[GB]/d/ [GB]/d/[GB]/d/ | %49
 [^FA] [d^fa]/d'/ [dfa]/d'/[dfa]/d'/ | !//-![d^fa]2 d'2 | !//-![dgb]2 d'2 | !//-![dgb]2 d'2 | %53
 [d^fad']!>(! ^c/c/ d/d/c/c/ | d/d/^c/c/ d/d/c/c/!>)! |!p! d3 g | ^ff z a | gg z b | a^fdc | %59
 Bd z g | g^f z a | ag z b | a^fdc | Bdd[Gg] |"_cresc." [Gg][^F^f][Ff][Aa] | [Aa][Gg][Gg][Bb] | %66
 [Bb][Aa][Aa][cc'] | [cc'][Bb][Bb][dd'] | [dd'][cc'][cc'][ee'] |!f! [f^gb=f']4 | [^GBf^g]4 | %71
 [Aea]4 | [^Ae^a]4 |!mf! [B^d]/b/[Bd]/b/ [cd]/c'/[cd]/c'/ | [c^d]/c'/[cd]/c'/ [c=d]/c'/[cd]/c'/ | %75
 [Bd]/b/[Bd]/b/ [Ac]/a/[Ac]/a/ | [GB]/g/[GB]/g/ [^Fd]/^f/[Fd]/f/ | .[Gdg] [dbd']2!ff! [dbd'] | %78
 .[Bgb] [EGce]2!ff! [EGce] |!ff! [DGBd] [dbd']2!ff! [dbd'] | .[Bgb] [^FAc^f]2!ff! [FAcf] | %81
 .[GBg] [dbd']2!ff! [dbd'] | .[Bgb] [EGce]2!ff! [EGce] |!ff! [DGBd] [dbd']2!ff! [dbd'] | %84
 .[Bgb] [^FAc^f]2!ff! [FAcf] |!mf! [Bg]/G/[Bg]/G/ [Bg]/G/[Bg]/G/ | !//-![Bg]2 G2 | %87
 !//-!!^![cg]2 G2 | !//-![cg]2 G2 | !//-!!^![dg]2 G2 | !//-![dg]2 G2 | !//-!!^![eg]2 G2 | %92
 !//-![eg]2 G2 | !^![fg]/G/[fg]/G/ [fg]/G/[eg]/G/ |1 !^![fg]/G/[fg]/G/ [fg]/G/[eg]/G/ | %95
 [fg]/!p!G/g/G/ z/!p! .G/.A/.B/ | .c/.d/.e/.f/ .[Gg].[Gg] :|2 %97
!ff! !^![fg]/G/[fg]/G/ [fg]/G/[eg]/G/ || [fg]/!p!G/g/G/ z/!p! .G/.A/.B/ | .c/.d/.e/.f/ .g.g | %100
!p! g3 ^f | g3 ^f | g2 z/ .A/.=B/.^c/ | .d/.e/.=f/.g/ .a.a | a3 ^g | a3 ^g | a2 z/!p! .A/.B/.^c/ | %107
 .d/.e/.f/.g/ .a.a |!pp! .a2 z/ .A/._B/.c/ | .d/._e/.f/.g/ .a.a |!ff! [_Bd_b]4 | [Fdf]2 .[D_Bd]2 | %112
 .[_EA_e]2 .[EAc]2 | .[_EA]2 .[A,CE]2 | .[df_bd']2 [_Bd]/b/[Bd]/b/ | %115
 [Fd]/f/[Fd]/f/ [D_B]/d/[DB]/d/ | [_EA]/_e/[EA]/e/ [EA]/c/[EA]/c/ | %117
 [C_E]/A/[CE]/A/ [A,C]/E/[A,C]/E/ | .[_B,D]!p! .[DF].[DF].[DF] | z ._B.B.B | _B2 A x | z .c.c.c | %122
 c_B.d.d | dcc_B | [FA]2 z/ .F/.G/.A/ | ._B/.c/.d/.e/ .f.f | g2 z/ .G/.A/._B/ | .c/.d/.e/.f/ .g.g | %128
 a2 z/ .A,/._B,/.C/ | .D/.E/.F/.G/ .A a/g/ | f/e/d/c/ _B x | x2 x _b/a/ | g/f/e/d/ .^c x | %133
 z e'/d'/ ^c'/b/a/g/ | .^f x x2 | .[A=c] a/g/ ^f/e/d/c/ | .[=FB] G/A/ B/c/d/e/ | %137
 .[Gdf] d'/c'/ b/a/g/f/ | .[Gce] C/D/ E/F/G/A/ | .[CG_B] g/f/ e/d/c/_B/ | %140
!p! .A"_cresc." a/g/ f/e/d/^c/ | .da/g/ f/e/d/=c/ |!f! B/g/[GBd]/g/ [GBd]/g/[GBd]/g/ | %143
 !//-![GBd]2 g2 | [Gce]/g/[Gce]/g/ [ce]/g/[ce]/g/ | !//-![Gce]2 g2 | !//-![Bd]2 [gb]2 | %147
 !//-![Bd]2 [gb]2 | !//-![c_e]2 [gc']2 | !//-![c_e]2 [gc']2 | [Bdb]2- [Bdb]/!ff!G/A/B/ | %151
 c/d/e/^f/ .[Gg].[Gg] | [Gg]2- [Gg]/!ff!B/c/d/ | e/^f/g/a/ .[Bgb].[Bgb] | %154
 [B-gb-]2 [Bb]/!ff!d/e/^f/ | g/a/b/c'/ .[dgd'].[dgd'] | [dgd']2- [dgd']/!ff!=f/g/a/ | %157
 b/c'/d'/e'/ .[ff'].[ff'] | [ff']2 [fd'f']2 | .[DGB]2 .[dbd']2 | .[D=Fd]2 .[fd'f']2 | %161
 .[DGB]2 .[dbd']2 |!ff! .[fd'f'].[e^c'e'].[fd'f'].[ec'e'] | .[fd'f'].[e^c'e'].[fd'f'].[ec'e'] | %164
!p! [fd'f'] z z/ .G/.A/.B/ | .c/.d/.e/.f/ .g.g |!p! .e2 .c.c | .d.d e/d/c/d/ | e2 c/G/A/B/ | %169
 c/d/e/f/ .g.g | .e.c d/c/B/c/ | .A.d e/d/^c/d/ | .G2 z!p! G | .[eg].[eg].[eg].[eg] | %174
 [eg]2 [df].[df] | .[df].[df].[df].[df] | [df]2 [ce].[ce] | .[ce].[Ece].[Ece].[Ece] | %178
 .[Fcd] z .[Acf] z | .[EGc] z .[DFB] z | .[CEc] z z2 | z"_cresc." [Aa][Bb][^c^c'] | %182
 .[dd'][ee'] [ff'] z | z .[Gg].[Aa].[Bb] | .[cc'].[dd'].[ee']!f! .[cac'] | %185
 .[cac'].[cac'].[cac'].[cac'] | !>![cac']2 .[_Bg_b].[Bgb] | .[_Bg_b].[Bgb].[Bgb].[Bgb] | %188
 [_Bg_b]2 .[Afa].[Afa] | .[Afa].[Acfa].[Acfa].[Acfa] | .[Gdg] d'/c'/ _b/a/g/^f/ | %191
 .[Gdg] d'/c'/ =b/a/g/=f/ | [EGce]!>(! B/B/ c/c/B/B/ | c/c/B/B/ c/c/B/B/!>)! |!p! c3 (f | %195
 e).e z (g | .f).f z (a | .g).e.c._B | (Ac) z .f | (fe) z .g | (gf) z .a | ([Aa][Gg]) ([Gg][Ff]) | %202
 ([Ee][Gg]) z .[cc'] | ([cc'][Bb]) z .[dd'] | ([dd'][cc']) z ([ee'] | [dd']).[Bb].[Gg].[Fdf] | %206
 ([Ee]"_cresc."[Gg]).[Gg].[cc'] | ([cc'][Bb]).[Bb].[dd'] | ([dd'][cc']).[cc'].[Ee] | %209
 ([Ee][Dd]).[Dd].[Ff] | ([Ff][Ee]).[Ee].[Gg] | ([Gg][Ff]).[Ff].[Aa] |!f! [_B^c_b]4 | [E_B^c]4 | %214
 [DAd]4 | [^DA^d]4 |!f! [E^G]/e/[EG]/e/!ff! [FGB]/f/[FGB]/f/ | %217
 [F^GB]/f/[FGB]/f/ [F=GB]/f/[FGB]/f/ | [EG]/[ce]/[EG]/[ce]/ [FA]/d/[FA]/d/ | %219
 [EG]/e/[EG]/e/ [DF]/B/[DF]/B/ | .[CEc] [eg]2!ff! [eg] | .[ce] [Acfa]2!ff! [Acfa] | %222
 .[Gceg] [ge'g']2!ff! [ge'g'] | .[ec'e'] [Bdgb]2!ff! [Bdgb] | .[cec'] [eg]2!ff! [eg] | %225
 .[ce] [Acfa]2!ff! .[Acfa] | .[Gceg] [ge'g']2!ff! [ge'g'] | .[ec'e'] [Bdgb]2!ff! [Bdgb] | %228
!ff! .[cec']2 z/ C/D/E/ | F/G/A/B/ .c.[Cc] | [CDcd]2- [CDcd]/!ff!D/E/F/ | G/A/B/c/ .d.[Dcd] | %232
 [Ece]2- [Ece]/!ff!E/F/G/ | A/_B/c/d/ .e.[Ece] | [Fcf]7/2!ff! [Fcf]/ | [^Fc_e^f]7/2!ff! [Fcef]/ | %236
 .[Gc_eg]2 [Acea]2- | !fermata![Acea]4 |!ff! .[Bdgb]2 [d=fgd']2- | !fermata![d=fgd']3 z | %240
 z2 z!p! G/A/ | B/c/d/e/ .f g/a/ | b/c'/d'/e'/ .f'!pp! G/A/ | B/c/d/e/ .f G/A/ | %244
 B/c/d/e/ .f/ .g/.a/.b/ | .c'/.d'/.e'/.f'/ .[gg'].[gg'] |!p! [ee']2 .[cc'].[cc'] | %247
!<(! .[dd'].[dd'] e'/d'/c'/d'/!<)! |!f! [ee']2 c'/ .G/.A/.B/ | .c/.d/.e/.f/ .[Gg].[Gg] | %250
 .[Ee].[Ec] d/c/B/c/ | .A.d e/d/^c/d/ | .[B,G]2 z!p! [Gg] | .[eg].[eg].[eg].[eg] | %254
 [eg]2 .[df].[df] | .[df].[df].[df].[df] | [df]2 .[ce].[Gce] | .[Gce].[Gce].[Gce].[Gce] | %258
 .[Acd] z .[Acf] z | .[Gce] z .[FBd] z | .[Ec]!ff! E/e/G/g/c/c'/ | %261
 [eg]/e'/!f![eg]/e'/ [eg]/e'/[eg]/e'/ | [eg]/e'/[eg]/e'/ [df]/d'/[df]/d'/ | !//-![df]2 d'2 | %264
 [df]/d'/[df]/d'/ [ce]/c'/[ce]/c'/ | !//-![ce]2 c'2 | !//-![cda]2 c'2 | %267
 [ce]/c'/[ce]/c'/ [Bd]/b/[Bd]/b/ |!ff! [cec']2 [Gc]>[Gc] | [Bd]2!ff! [Gc] z | %270
!f! [EGce]2 [ce]>[ce] | [Bf]2!f! [ce] z |!p! [ce]/[df]/[eg]/[fa]/ [gb]/[ac']/[bd']/[c'e']/ | %273
 .[d'f'] z .[df]2 | .[bd']2 .[Bd]2 | .[c'e']2 .[ce]/!p! C/D/E/ | F/G/A/B/ .c/ c/d/e/ | %277
 f/g/a/b/ .c'/ [CE]/[DF]/[EG]/ | [FA]/[GB]/[Ac]/[Bd]/ .[ce]/ [ce]/[df]/[eg]/ | %279
 [fa]/[gb]/[ac']/[bd']/ .[c'e'] z | [Ece]2 [Ece]>[Ece] | .[Fdf]2!p! .[fd'f']2 | z2 .[dbd']2 | %283
 z2 c/e/[df]/[eg]/ | [fa]/[gb]/[ac']/[bd']/ z2 |"_cresc." .[fd'f']2 .[fd'f']2 | z2 .[dbd']2 | %287
 z2 (3[Ece][Fdf][Geg] | (3[Afa][Bgb][cac'] .[dbd'].[ec'e'] | %289
!ff! [db]/d'/[db]/d'/ [db]/d'/[db]/d'/ | [Bg]/b/[Bg]/b/ [Bg]/b/[Bg]/b/ | %291
 [cc']2!ff! (3[Cc][Ee][Gg] | (3[Gg][Aa][Bb] .[cc'].[cc'] | [ee']2!ff! (3[Ee][Gg][Aa] | %294
 (3[Bb][cc'][dd'] [ee'][ee'] |!ff! !//-!g2 g'2 | e/e'/e/e'/ c/c'/c/c'/ | G/g/G/g/ E/e/E/e/ | %298
 C/c/C/c/ G,/G/G,/G/ | !>!C2 z2 | !>![Bdgb]2 z2 | !>![cegc']2 z2 | !>![B,DGB]2 z2 | !>![CEGc]2 z2 | %304
 !>![cegc']2 z2 | !>!C2 z2 | z4 |] %307
V:2
!ped! !fermata![G,,,G,,]3!ped-up! z | z4 | z4 | z4 | z4 |!ped! z4!ped-up! | z4 |: %7
!p! C/G,/C/G,/ C/G,/C/G,/ | B,/G,/B,/G,/ B,/G,/B,/G,/ | C/G,/C/G,/ C/G,/C/G,/ | %10
 C/G,/C/G,/ B,/G,/B,/G,/ | z/ C/E/C/ E/C/E/C/ | z/ A,/C/A,/ C/A,/C/A,/ | .B,2 z2 | z .A,.B,.^C | %15
 .D.E .F z | z .G,.A,.B, | .C.D.E z | z .C,.D,.E, | .F,.E,.D,.F, | .G,.^F,.G,.G,, | %21
 .C,.G,.C .[EG] | .[EG].[EG].[EG].[EG] |{/D,} ([EG]2 [DF]).[DF] | .[DF].[DF].[DF].[DF] | %25
{/C,} ([DF]2 [CE]) .[CE] | .[CE] .[C,,C,].[D,,D,].[E,,E,] | .[F,,F,].[E,,E,].[D,,D,].[F,,F,] | %28
 .[G,,G,].[^F,,^F,].[G,,G,].[G,,,G,,] |!ped! [C,,C,] z!ff! C,/C,/C,/C,/!ped-up! | %30
!ped! G,, z G,,/G,,/G,,/G,,/!ped-up! |!ped! C,, z z2!ped-up! | z!f! .[G,,G,].[G,,G,].[G,,G,] | %33
!ped! [C,C] z!ff! C,/C,/C,/C,/!ped-up! |!ped! G,, z G,,/G,,/G,,/G,,/!ped-up! | %35
!ped! C,, z z2!ped-up! | z!f! .[G,D].[G,D].[G,D] | C,[CE]!ped! !>!A,,[A,CE] | %38
 [A,CE][A,CE][A,CE][A,CE]!ped-up! | !>!^F,,[^F,CD]!ped! !>!^G,,[^G,B,D] | %40
 [^G,B,D][G,B,D] E, z!ped-up! | A,, x D, x | G, x B,, x | .[C,C]2 z2 | .[^C,^C]2 z2 | %45
!f!!ped! [D,D] .[D,,D,].[^F,,^F,].[G,,G,]!ped-up! | %46
!ped! .[A,,A,].[B,,B,]!ped-up!!ped! [C,C]2-!ped-up! | %47
!ped! [C,C]!f!.[B,,B,] .[D,D].[B,,B,]!ped-up! |!ped! .[G,,G,].[G,,G,] .[B,,B,].[G,,G,]!ped-up! | %49
!ped! .[D,,D,].[D,,D,].[^F,,^F,].[G,,G,]!ped-up! | %50
!ped! .[A,,A,].[B,,B,]!ped-up!!ped! [C,C]2-!ped-up! |!ped! [C,C]!f!.[B,,B,].[D,D].[B,,B,] | %52
 .[G,,G,].[G,,G,].[B,,B,].[G,,G,]!ped-up! | [D,,D,] z z2 | z4 |!p! DDDD | DDDD | DDDD | DDDD | %59
 DDDD | DDDD | DDDD | DDDD | DDDD | DDDD | B,G,G,G, | CG,G,G, | DG,G,G, | EG,G,G, | %69
!ped! !>![D,,D,][^G,B,=F][G,B,=F][G,B,=F]!ped-up! | %70
!ped! !>![D,,D,]!f![F,^G,DF][F,G,DF][F,G,DF]!ped-up! | %71
!ped! !>![^C,,^C,]!f![E,A,^CE][E,A,CE][E,A,CE]!ped-up! | %72
!ped! !>![=C,,=C,]!f![E,=CE][E,CE][E,CE]!ped-up! | %73
 [B,,^F,B,][B,,F,B,]!ff!!ped! [A,,F,A,][A,,F,A,] | [A,,^F,A,][A,,F,A,]!ped-up! [A,,F,A,][A,,F,A,] | %75
 [G,,G,][G,,G,] [C,E,A,C][C,E,A,C] | [D,G,B,D][D,G,B,D] [D,A,C][D,A,C] | .[G,,B,] [B,D]2 [B,D] | %78
 .[G,B,]!ped! C,,/C,/C,,/C,/C,,/C,/!ped-up! | [D,,D,] [B,D]2 [B,D] | %80
 .[G,B,]!ped! [D,,D,]2 [D,,D,]!ped-up! | .[G,,G,] [B,D]2 [B,D] | %82
 .[G,B,]!ped! C,,/C,/C,,/C,/C,,/C,/!ped-up! | [D,,D,] [B,D]2 [B,D] | %84
 .[G,B,]!ped! [D,,D,]2 [D,,D,]!ped-up! |!ff!!ped! [G,,G,]2 z/ B,,/C,/D,/ | %86
 E,/^F,/G,/A,/!ped-up! .[G,B,].[G,B,] |!ped! [A,C]2!ff! A,,/C,/D,/E,/ | %88
 ^F,/G,/A,/B,/!ped-up! .[A,C].[A,C] |!ped! [B,D]2!ff! B,,/D,/E,/^F,/ | %90
 G,/A,/B,/C/!ped-up! .[B,D].[B,D] |!ped! [CE]2!ff! C,/E,/F,/G,/ | A,/B,/C/D/!ped-up! .[^CE].[CE] | %93
 [DF]3!ff! [^C,G,^C] |1 [D,G,D]3!ff! [^CE] | [DF]!p!.[=CE].[B,D].[A,C] | %96
 .[G,B,].[F,A,].[E,G,].[D,F,] :|2 [D,G,D]3!ff! [^C,G,^C] || [D,G,D]2 z2 | z4 |[K:treble] E3 ^D | %101
 E3 ^D | E2 z2 | z4 | [FA]3 [E^G] | [FA]3 [E^G] | [FA]2 z2 | z4 |[K:bass] [F,C_E]2 z2 | z4 | %110
!ped! [_B,,,_B,,]!f! [B,,F,]/_B,/[B,,F,]/B,/[B,,F,]/B,/ | !//-![_B,,F,]2 _B,2!ped-up! | %112
!ped! !//-!_B,,2 C2 |!ff! _B,,/C/B,,/C/ _B,,,/B,,/B,,,/B,,/!ped-up! | %114
!ped! _B,,,/_B,,/B,,,/B,,/ [B,,F,]/_B,/[B,,F,]/B,/!ped-up! |!ped! !//-![_B,,F,]2 _B,2!ped-up! | %116
!ped! !//-!_B,,2 C2!ped-up! |!ped! !//-!_B,,,2 _B,,2!ped-up! | .[_B,,,_B,,] z z/!p! .B,,/.C,/.D,/ | %119
 ._E,/.F,/.G,/.A,/ ._B,.B, | C2 z/ C,/D,/_E,/ | .F,/.G,/.A,/._B,/ .C.C | .D2 D2 | _E2 =E2 | %124
 [F,C]2 z2 | z4 | .[C,C]2 z2 | z2 z E | [F,F]2 .F/.F,/.G,/.A,/ | ._B,/.C/.D/.E/ .F[K:treble] [FA] | %130
 [G_B]2 z/[K:bass] .G,/.A,/._B,/ | .C/.D/.E/.F/ .G.G | [^CG] A,/B,/^C/[I:staff -1]D/E/F/ | %133
[I:staff +1] .^C,2 .A,,2 | .[D,D]2 .A,2 | .[^F,D]2 .D,2 | .[G,D]2!mp! .[D,D]2 | %137
 .[B,,B,]2 .[G,,G,]2 | .[C,C]2 .[G,,G,]2 | .[E,,E,]2 .[C,,C,]2 | .[F,,F,] [F,A,C][F,A,C][F,A,C] | %141
 [F,A,D][F,A,D][F,A,D][^F,A,D] |!f!!ped! [G,D] .[G,,G,].[B,,B,].[C,C] | %143
 .[D,D].[E,E]!ped-up! !>![F,F]2- |!ped! [F,F]!f![E,E].[G,G].[E,E] | %145
 .[C,C].[C,C].[E,E]!ped-up!.[C,C] |!ff!!ped! .[G,,G,].[G,,G,].[B,,B,].[C,C] | %147
 .[D,D].[_E,_E]!ped-up! [F,F]2- |!ped! [F,F]!ff!.[_E,_E].[G,G].[E,E] | %149
 .[C,C].[C,C].[_E,_E]!ped-up!.[C,C] | [G,,G,]2!ped! [G,,G,]2- | %151
 [G,,G,]2- [G,,G,]/!ff!G,,/A,,/B,,/!ped-up! | C,/D,/E,/^F,/ .[G,,G,].[G,,G,] | %153
 [G,,G,]2- [G,,G,]/!ff!B,,/C,/D,/ | E,/^F,/G,/A,/!ped! .[B,,G,B,].[B,,G,B,] | %155
 [B,,-G,B,-]2!ped-up! [B,,B,]/!ff!D,/E,/^F,/ | G,/A,/B,/C/!ped! .[D,G,D].[D,G,D]!ped-up! | %157
 [D,G,D][C,C][B,,B,][A,,A,] |!ff!!ped! [G,,G,][^F,,^F,][G,,G,][F,,F,] | %159
 [G,,G,][^F,,^F,][G,,G,][F,,F,] | [G,,G,][^F,,^F,][G,,G,][F,,F,] | %161
 [G,,G,][^F,,^F,][G,,G,][F,,F,]!ped-up! | [G,,G,] .[^CE].[DF].[CE] | .[DF].[^CE].[DF].[CE] | %164
 .[DF].[=CE].[B,D].[A,C] | .[G,B,].[F,A,].[E,G,].[D,F,] |!p! C/G,/C/G,/ C/G,/C/G,/ | %167
 B,/G,/B,/G,/ B,/G,/B,/G,/ | C/G,/C/G,/ C/G,/C/G,/ | C/G,/C/G,/ B,/G,/B,/G,/ | z/ C/E/C/ E/C/E/C/ | %171
 z/ A,/C/A,/ C/A,/C/A,/ | .B,2 z2 | z .A,.B,.^C | .D.E.F z | z .G,.A,.B, | .C.D.E z | z .C,.D,.E, | %178
 .F,.E,.D,.F, | .G,.^F,.G,.G,, | .C,.G,.C .[EG] | .[EG]"_cresc.".[EG].[EG].[EG] | %182
{/D,} [EG]2 .[DF].[DF] | .[DF].[DF].[DF].[DF] |{/C,} [DF]2 [CE] z | z .[D,D].[E,D].[^F,D] | D3 z | %187
 z .[C,C].[D,C].[E,C] | C3 z | z .[F,,F,].[G,,G,].[A,,A,] | %190
!ped! .[_B,,_B,] [B,D][B,D][B,D]!ped-up! | %191
!ped! .[=B,,=B,][K:treble] [=B,DFG][B,DFG][B,DFG]!ped-up! |[K:bass] [C,C] z z2 | z4 | CCCC | CCCC | %196
 CCCC | CCCC | CCCC | CCCC | CCCC | DD =B,B, | CG,G,G, | DG,G,G, | EG,G,G, | B,G,G,G, | CG,G,G, | %207
 DG,G,G, | ECC,C, | F,C,C,C, | G,C,C,C, | A,C,C,C, | %212
!ped! !>![G,,G,]!mf![G,_B,^C][G,B,C][G,B,C]!ped-up! | %213
!ped! !>![G,,G,]!mf![G,_B,^C][G,B,C][G,B,C]!ped-up! | %214
!ped! !>![^F,,^F,]!mf![F,A,][F,A,][F,A,]!ped-up! | %215
!ped! !>![=F,,=F,]!mf![F,A,][F,A,][F,A,]!ped-up! |!ped! [E,B,][E,,E,]!ped-up!!ped! [D,,D,][D,,D,] | %217
 [D,,D,][D,,D,]!ped-up!!ped![D,,D,][D,,D,]!ped-up! | %218
!ped! [C,,C,][C,,C,]!ped-up!!ped! !>![F,,F,]!>![F,,F,]!ped-up! | %219
!ped! !>![G,,G,]!>![G,,G,]!ped-up!!ped! !>![G,,,G,,]!>![G,,,G,,]!ped-up! | .[C,,C,] [EG]2 [EG] | %221
 .[CE]!ped! !>![F,,C,]/!>!F,/!>![F,,C,]/!>!F,/!>![F,,C,]/!>!F,/!ped-up! | .[G,,G,] [EG]2 [EG] | %223
 .[CE]!ped! !>!G,,/!>!G,/!>!G,,/!>!G,/!>!G,,/!>!G,/!ped-up! | .[C,,C,] [EG]2 [EG] | %225
 .[CE]!ped! !>![F,,C,]/!>!F,/!>![F,,C,]/!>!F,/!>![F,,C,]/!>!F,/!ped-up! | .[G,,G,] [EG]2 [EG] | %227
 .[CE]!ped! !>!G,,/!>!G,/!>!G,,/!>!G,/!>!G,,/!>!G,/!ped-up! |!ped! x2 z/ C,/D,/E,/!ped-up! | %229
 F,/G,/A,/B,/ .C .[C,,C,] |!ped! x2!ped-up! z/ D,/E,/F,/ | G,/A,/B,/C/ .D .[B,,,B,,] | %232
!ped! x2!ped-up! z/ E,/F,/G,/ | A,/_B,/C/D/ .E .[_B,,,_B,,] |!ped! !//-![A,,,C,,]2!ped-up! A,,2 | %235
!ped! !//-![_A,,,C,,]2 _A,,2!ped-up! | .[G,,,G,,]2!ped! [^F,,,C,,]/^F,,/[F,,,C,,]/F,,/-!ped-up! | %237
 !fermata![^F,,,C,,F,,]4 | .[=F,,=F,]2 [B,,,G,,]/B,,/[B,,,G,,]/B,,/ | %239
 !fermata![B,,,G,,B,,]3!p! G,/A,/ | B,/C/D/E/ .F z | z2 z!p! G,/A,/ | B,/C/D/E/ .F z | z4 | %244
 z2 z/[K:treble] .G/.A/.B/ | .c/.d/.e/.f/ z2 | %246
[K:bass]!ped! z/!pp! G,/[CE]/G,/ [CE]/G,/[CE]/G,/!ped-up! | %247
!p!!ped! z/!pp! G,/[B,F]/G,/ [B,F]/G,/[B,F]/G,/!ped-up! | %248
!mf!!ped! [C,G,]/C/[C,G,]/C/ [C,E,G,]/C/[C,E,G,]/C/!ped-up! | %249
 [C,E,G,]/C/[C,E,G,]/C/!ped-up!!ped! [C,F,G,]/B,/[C,F,G,]/B,/ |!ped! !//-![C,E,G,]2 C2!ped-up! | %251
!ped! !//-![D,^F,]2 C2!ped-up! |!f! .[G,,G,]2 z2 | z!p! .A,.B,.^C | .D.E .F2 | z .G,.A,.B, | %256
 .C.D .E2 | z .C,.D,.E, | .F,.E,.D,.F, | .G,.^F,.G,.G,, | .[C,C]2!ped! z2!ped-up! | %261
!ped! z!ff! .[A,,A,].[B,,B,].[^C,^C]!ped-up! |!ped! .[D,D].[E,E] [F,F]2!ped-up! | %263
!ped! z .[G,,G,].[A,,A,].[B,,B,]!ped-up! |!ped! .[C,C].[D,D] [E,E]2!ped-up! | %265
!ped! z .[C,,C,].[D,,D,].[E,,E,]!ped-up! |!ped! .[F,,F,].[E,,E,].[F,,F,].[D,,D,]!ped-up! | %267
 .[G,,G,].[^F,,^F,] .[G,,G,].[G,,G,] | .[C,,C,]2 [E,C]>[E,C] | [G,D]2 [E,C] z | %270
 [C,E,G,C]2 [CE]>[CE] | [G,D]2 [CE] z |!p! [CE]2 [CE]>[CE] | .[DF]2 z2 | .D2 z2 | .E2 z2 | %276
!p! [E,G,C]2 [E,G,C]>[E,G,C] | [G,B,D]2!p! .[E,G,C] z | [CE]2 [CE]>[CE] | %279
 [G,B,DF]2 .[CE]/!p! [C,E,]/[D,F,]/[E,G,]/ | [F,A,]/[G,B,]/[A,C]/[B,D]/ .C.C |!p! .D2 z2 | .D2 z2 | %283
 .E2 z[K:treble] B/[Ac]/ | [GB]/[FA]/[EG]/[DF]/ [CE][CE] |[K:bass] .[F,DF]2 .[DF]2 | %286
 .[G,,G,]2 .[G,D]2 |!ped! C,,/C,/C,,/C,/ C,,/C,/C,,/C,/!ped-up! | [C,,C,] [E,CE].[E,CE].[E,CE] | %289
!ped! !>![F,,F,] [F,DF]!ped-up![F,DF][F,DF] |!ped! [G,,G,] [G,D][G,D][G,D]!ped-up! | %291
!ped! [C,C]2 (3[C,,C,][E,,E,][F,,F,]!ped-up! | (3[G,,G,][A,,A,][B,,B,] .[C,C].[C,C] | %293
!ped! [E,E]2!ped-up! (3[E,,E,][G,,G,][A,,A,] | (3[B,,B,][C,C][D,D] [E,E][E,E] | %295
!ped! [G,G][G,G]!ped-up![G,G][G,G] | [E,E][E,E][C,C][C,C] | [G,,G,][G,,G,][E,,E,][E,,E,] | %298
 [C,,C,][C,,C,][G,,,G,,][G,,,G,,] | !>![C,,C,]2 z2 | !>![G,,B,,D,G,]2 z2 | !>![C,E,G,C]2 z2 | %302
 !>![G,,B,,D,G,]2 z2 | !>![C,,E,,G,,C,]2 z2 | !>![C,E,G,C]2 z2 | !>![C,,C,]2 z2 | z4 |] %307
V:3
 x4 | x4 | x4 | x4 | x4 | x4 | x4 |: .E.G.E.G | .F.G.F.G | .E.G.E x | .E x .F.G | .E.G x G | %12
 ^FFFF | G2 x2 | x4 | x4 | x4 | x4 | x4 | x4 | x4 | x4 | x4 | x4 | x4 | x4 | x4 | x4 | x4 | x4 | %30
 x4 | x4 | x4 | !arpeggio![Ec]4 | B2 x2 | x4 | x4 | x4 | x4 | x4 | x4 | B x A2 | A x G2 | E x x2 | %44
 E x x2 | x4 | x2 D2 | D2 x2 | D2 D2 | x4 | x4 | x4 | x4 | x4 | x4 | B4 | c4 | d3 B | A2 z A | %59
 B2 x B | c2 x c | d2 x B | A^F z A | B2 x B | c2 x c | d2 x d | e2 x e | =f2 x f | g2 x g | x4 | %70
 x4 | x4 | x4 | x4 | x4 | x4 | x4 | x4 | x4 | x4 | x4 | x4 | x4 | x4 | x4 | x4 | x4 | x4 | x4 | %89
 x4 | x4 | x4 | x4 | x4 |1 x4 | x4 | x4 :|2 x4 || x4 | x4 | [_B^c]4- | [Bc]4- | [Bc]2 x2 | x4 | %104
 d4- | d4- | d2 x2 | x4 | x4 | x4 | x4 | x4 | x4 | x4 | x4 | x4 | x4 | x4 | x4 | %119
 .[DF].[DF].[DF].[DF] | [_EF][EF][EF][EF] | [_EF]/ z/ [EF] [EF][EF] | FFFF | GGGG | x4 | %125
 x2 x d/c/ | _B/A/[I:staff +1]G/F/ =E[I:staff -1] x | x2 x c/_B/ | %128
 A/[I:staff +1]G/F/E/[I:staff -1] x2 | x4 | x2 z/ ._B,/.C/.D/ | .E/.F/.G/.A/ ._B x | x4 | %133
 [EG] x x2 | x D/E/ ^F/G/A/B/ | x4 | x4 | x4 | x4 | x4 | x4 | x4 | x4 | x4 | x4 | x4 | x4 | x4 | %148
 x4 | x4 | x4 | x4 | x4 | x4 | x4 | x4 | x4 | x4 | x4 | x4 | x4 | x4 | x4 | x4 | x4 | x2 .G.F | %166
 .E.G.E.G | .F.G.F.G | .E.G.E x | E x .F.G | .E.G x G | ^FFFF | .G2 x2 | x4 | x4 | x4 | x4 | x4 | %178
 x4 | x4 | x4 | x4 | x4 | x4 | x4 | x4 | x4 | x4 | x4 | x4 | x4 | x4 | x4 | x4 | A4 | _B4 | c3 A | %197
 G2 z G | A2 z A | _B2 z B | c2 z [Ac] | d2 =B2 | c2 z (e | f4) | g4 | g2 x2 | c2 x e | f2 x f | %208
 g2 x2 | c4 | c4 | c4 | x4 | x4 | x4 | x4 | x4 | x4 | x4 | x4 | x4 | x4 | x4 | x4 | x4 | x4 | x4 | %227
 x4 | x4 | x4 | x4 | x4 | x4 | x4 | x4 | x4 | x4 | x4 | x4 | x4 | x4 | x4 | x4 | x4 | x4 | x4 | %246
 x4 | x4 | x4 | x4 | x2 E x | ^FF F x | x4 | x4 | x4 | x4 | x4 | x4 | x4 | x4 | x4 | x4 | x4 | x4 | %264
 x4 | x4 | x4 | x4 | x4 | x4 | x4 | x4 | x4 | x4 | x4 | x4 | x4 | x4 | x4 | x4 | x4 | x4 | x4 | %283
 x4 | x4 | x4 | x4 | x4 | x4 | x4 | x4 | x4 | x4 | x4 | x4 | x4 | x4 | x4 | x4 | x4 | x4 | x4 | %302
 x4 | x4 | x4 | x4 | x4 |] %307
V:4
 x4 | x4 | x4 | x4 | x4 | x4 | x4 |: .C,2 x2 | .C,2 x2 | .C,2 x2 | .C,2 .C,2 | .C,2 z2 | .D,2 z2 | %13
 .G,2 x2 | x4 | x4 | x4 | x4 | x4 | x4 | x4 | x4 | .A,2 x2 | x4 | G,2 z2 | x4 | x4 | x4 | x4 | x4 | %30
 x4 | x4 | x4 | x4 | x4 | x4 | x4 | x4 | x4 | x4 | x2 E,[^G,B,E] | A,,[A,CE] D,[A,C^F] | %42
 G,[B,DG] B,,[G,B,D] | x4 | x4 | x4 | x4 | x4 | x4 | x4 | x4 | x4 | x4 | x4 | x4 | .G,2 .D,2 | %56
 .A,2 .D,2 | .B,2 .D,2 | .^F,2 .D,2 | .G,2 .D,2 | .A,2 .D,2 | .B,2 .D,2 | .^F,2 .D,2 | .G,2 .D,2 | %64
 .A,2 .D,2 | .B,,2 .G,,2 | .C,2 .G,,2 | .D,2 .G,,2 | .E,2 .C,2 | x4 | x4 | x4 | x4 | x4 | x4 | x4 | %76
 x4 | x4 | x4 | x4 | x4 | x4 | x4 | x4 | x4 | x4 | x4 | x4 | x4 | x4 | x4 | x4 | x4 | x4 |1 x4 | %95
 x4 | x4 :|2 x4 || x4 | x4 |[K:treble] x4 | x4 | x4 | x4 | x4 | x4 | x4 | x4 |[K:bass] x4 | x4 | %110
 x4 | x4 | x4 | x4 | x4 | x4 | x4 | x4 | x4 | x4 | x4 | x4 | x4 | x4 | x4 | x4 | x4 | x4 | x4 | %129
 x3[K:treble] x | x5/2[K:bass] x3/2 | x4 | A, z .E,2 | x4 | x4 | x4 | x4 | x4 | x4 | x4 | x4 | x4 | %142
 x4 | x4 | x4 | x4 | x4 | x4 | x4 | x4 | x4 | x4 | x4 | x4 | x4 | x4 | x4 | x4 | x4 | x4 | x4 | %161
 x4 | x4 | x4 | x4 | x4 | .C,2 x2 | .C,2 x2 | .C,2 x2 | .C,2 .C,2 | .C,2 x2 | D,2 x2 | .G,2 x2 | %173
 x4 | x4 | x4 | x4 | x4 | x4 | x4 | x4 | .A,2 x2 | x4 | .G,2 x2 | x4 | x4 | G,A,_B, x | x4 | %188
 F,G,A, z | x4 | x4 | x[K:treble] x3 |[K:bass] x4 | x4 | .F,2 .C,2 | .G,2 .C,2 | .A,2 .C,2 | %197
 .E,2 .C,2 | .F,2 .C,2 | .G,2 .C,2 | .A,2 .C,2 | !arpeggio!.=B,,2 !arpeggio!.G,,2 | .C,2 .G,,2 | %203
 .D,2 .G,,2 | .E,2 .G,,2 | .B,,2 .G,,2 | .C,2 .G,,2 | .D,2 .G,,2 | E,2 C,,2 | F,,2 C,,2 | %210
 G,,2 C,,2 | A,,2 C,,2 | x4 | x4 | x4 | x4 | x4 | x4 | x4 | x4 | x4 | x4 | x4 | x4 | x4 | x4 | x4 | %227
 x4 | [C,,C,]4 | x4 | [B,,,B,,]4 | x4 | [_B,,,_B,,]4 | x4 | x4 | x4 | x4 | x4 | x4 | x4 | x4 | x4 | %242
 x4 | x4 | x5/2[K:treble] x3/2 | x4 |[K:bass] C,2 x2 | C,2 x2 | x4 | x4 | x4 | x4 | x4 | x4 | x4 | %255
 x4 | x4 | x4 | x4 | x4 | x4 | x4 | x4 | x4 | x4 | x4 | x4 | x4 | x4 | x4 | x4 | x4 | x4 | F,2 x2 | %274
 G,2 x2 | C,2 x2 | x4 | x4 | x4 | x4 | x4 | F,2 x2 | [G,B,]2 x2 | C,2 x2[K:treble] | x4 | %285
[K:bass] x4 | x4 | x4 | x4 | x4 | x4 | x4 | x4 | x4 | x4 | x4 | x4 | x4 | x4 | x4 | x4 | x4 | x4 | %303
 x4 | x4 | x4 | x4 |] %307

